X:2
T:La Double Inconstance
R:jig
D:Howie, Dave  & Mac
Z:Paul Stewart Cranford (P.S.C.), <http://www.cranfordpub.com>
L:1/8
M:6/8
Q:300
K:Bb
F|:BcB B,2 B|BdB c3|cdc C2 c|cec d3|
BcB B,2 B|BdB cfe|dcB AGA|[1B3 Bdc:|[2B3 B2||
||b|:fdB D2 B|E2 c D2 g|fed {e}dcB|ABG F3|
GAB ABc|Bcd cfe|dcB ABc|[1B3 Bbg:|[2B3 B2|]
